X:1
T:Partita I Giga
T:BWV 825
T:J. S. Bach
%%score ( 1 2 )
L:1/8
Q:1/4=184
M:4/4
K:Bb
V:1 treble nm="Harp"
V:2 treble 
V:1
"^Presto" f2[I:staff +1] B,2 B,,2[I:staff -1] f2 | g2 _A2 G2 g2 | c2 _G2 F2 c2 | %3
 d2[I:staff +1] B,2 B,,2[I:staff -1] g2 | g2 A2 A/4G/4A/4G/4A/4G/4A/4G/4 F2 | =E2 G2 C2 =e2 | %6
 f2 G2 G/4F/4G/4F/4G/4F/4G/4F/4 =E2 | D2 F2 B,2 d2 | =e2 _D2 C2 e2 | f2 _D2 C2 f2 | g2 _D2 C2 g2 | %11
 _a2 _D2 C2 ^g2 | =B2[I:staff +1] _A,2 G,2[I:staff -1] B2 | %13
 c2[I:staff +1] _D,2 C,2[I:staff -1] B2 | _A2[I:staff +1] =B,2 C2 C,2 | F,,2[I:staff -1] F2 f4 | %16
 f2[I:staff +1] B,2 B,,2[I:staff -1] f2 | g2 _A2 G2 g2 | c2 _G2 F2 c2 | %19
 d2[I:staff +1] B,2 B,,2[I:staff -1] g2 | g2 A2 A/4G/4A/4G/4[AA]/4G/4A/4G/4 F2 | =E2 G2 C2 =e2 | %22
 f2 G2 G/4F/4G/4F/4G/4F/4G/4F/4 =E2 | D2 F2 B,2 d2 | =e2 _D2 C2 e2 | f2 _D2 C2 f2 | g2 _D2 C2 g2 | %27
 _a2 _D2 C2 ^g2 | =B2[I:staff +1] _A,2 G,2[I:staff -1] B2 | %29
 c2[I:staff +1] _D,2 C,2[I:staff -1] B2 | _A2[I:staff +1] =B,2 C2 C,2 | F,,2[I:staff -1] F2 f4 | %32
 a2 E2[I:staff +1] F,2[I:staff -1] a2 | b2 _A2[I:staff +1] B,2[I:staff -1] b2 | g2 B2 A2 g2 | %35
 ^f2 G2 A2 f2 | g2 E2 D2 g2 | a2 E2 D2 a2 | b2 E2 D2 b2 | c'2 E2 D2 c'2 | ^a2 ^f2 g2 ^c2 | %41
 d2 G2 ^F2 E2 | D2 ^C2 D2[I:staff +1] D,2 | G,,2 D,2 G,2 B,2 |[I:staff -1] D2 F2 B2 d2 | %45
 E2 B2 g2 D2 | C2 F2 B,2 =e2 | f2 F2 f2 F2 | e2 F2 e2 F2 | d2 F2 d2 F2 | _d2 =E2 d2 E2 | %51
 c2 E2 c2 E2 | _c2 D2 c2 D2 | B2 _D2 B2 D2 | A2 C2 A2 C2 | G2 B,2 G2 B,2 | %56
 A2[I:staff +1] _G,2 F,2[I:staff -1] A2 | B2[I:staff +1] _G,2 F,2[I:staff -1] B2 | %58
 c2[I:staff +1] _G,2 F,2[I:staff -1] c2 | _d2[I:staff +1] _G,2 F,2[I:staff -1] d2 | %60
 =e2[I:staff +1] _D,2 C,2[I:staff -1] e2 | f2[I:staff +1] _G,,2 F,,2[I:staff -1] e2 | %62
 _d2[I:staff +1] =E,2 F,2 F,,2 | B,,2[I:staff -1] B2 b4 | a2 E2[I:staff +1] F,2[I:staff -1] a2 | %65
 b2 _A2[I:staff +1] B,2[I:staff -1] b2 | g2 B2 A2 g2 | ^f2 G2 A2 f2 | g2 E2 D2 g2 | a2 E2 D2 a2 | %70
 b2 E2 D2 b2 | c'2 E2 D2 c'2 | ^a2 ^f2 g2 ^c2 | d2 G2 ^F2 E2 | D2 ^C2 D2[I:staff +1] D,2 | %75
 G,,2 D,2 G,2 B,2 |[I:staff -1] D2 F2 B2 d2 | E2 B2 g2 D2 | C2 F2 B,2 =e2 | f2 F2 f2 F2 | %80
 e2 F2 e2 F2 | d2 F2 d2 F2 | _d2 =E2 d2 E2 | c2 E2 c2 E2 | _c2 D2 c2 D2 | B2 _D2 B2 D2 | %86
 A2 C2 A2 C2 | G2 B,2 G2 B,2 | A2[I:staff +1] _G,2 F,2[I:staff -1] A2 | %89
 B2[I:staff +1] _G,2 F,2[I:staff -1] B2 | c2[I:staff +1] _G,2 F,2[I:staff -1] c2 | %91
 _d2[I:staff +1] _G,2 F,2[I:staff -1] d2 | =e2[I:staff +1] _D,2 C,2[I:staff -1] e2 | %93
 f2[I:staff +1] _G,,2 F,,2[I:staff -1] e2 | _d2[I:staff +1] =E,2 F,2 F,,2 | %95
 B,,2[I:staff -1] B2 !fermata!b4 |] %96
V:2
[I:staff +1] (3z[I:staff -1] DB[I:staff +1] (3z[I:staff -1] DB[I:staff +1] (3z[I:staff -1] DB[I:staff +1] (3z[I:staff -1] DB | %1
[I:staff +1] (3z[I:staff -1] EB[I:staff +1] (3z[I:staff -1] EB[I:staff +1] (3z[I:staff -1] EB[I:staff +1] (3z[I:staff -1] EB | %2
[I:staff +1] (3z[I:staff -1] EA[I:staff +1] (3z[I:staff -1] EA[I:staff +1] (3z[I:staff -1] EA[I:staff +1] (3z[I:staff -1] EA | %3
[I:staff +1] (3z[I:staff -1] FB[I:staff +1] (3z[I:staff -1] FB[I:staff +1] (3z[I:staff -1] FB[I:staff +1] (3z[I:staff -1] FB | %4
[I:staff +1] (3z[I:staff -1] Bd[I:staff +1] (3z[I:staff -1] Bd[I:staff +1] (3z[I:staff -1] Bd[I:staff +1] (3z[I:staff -1] Bd | %5
[I:staff +1] (3z[I:staff -1] Bc[I:staff +1] (3z[I:staff -1] Bc[I:staff +1] (3z[I:staff -1] Bc[I:staff +1] (3z[I:staff -1] Ac | %6
[I:staff +1] (3z[I:staff -1] Ac[I:staff +1] (3z[I:staff -1] Ac[I:staff +1] (3z[I:staff -1] Ac[I:staff +1] (3z[I:staff -1] Ac | %7
[I:staff +1] (3z[I:staff -1] AB[I:staff +1] (3z[I:staff -1] AB[I:staff +1] (3z[I:staff -1] AB[I:staff +1] (3z[I:staff -1] AB | %8
[I:staff +1] (3z[I:staff -1] GB[I:staff +1] (3z[I:staff -1] GB[I:staff +1] (3z[I:staff -1] GB[I:staff +1] (3z[I:staff -1] GB | %9
[I:staff +1] (3z[I:staff -1] F_A[I:staff +1] (3z[I:staff -1] FA[I:staff +1] (3z[I:staff -1] FA[I:staff +1] (3z[I:staff -1] FA | %10
[I:staff +1] (3z[I:staff -1] =EG[I:staff +1] (3z[I:staff -1] EG[I:staff +1] (3z[I:staff -1] EG[I:staff +1] (3z[I:staff -1] EG | %11
[I:staff +1] (3z[I:staff -1] =EF[I:staff +1] (3z[I:staff -1] EF[I:staff +1] (3z[I:staff -1] EF[I:staff +1] (3z[I:staff -1] EF | %12
[I:staff +1] (3z[I:staff -1] DF[I:staff +1] (3z[I:staff -1] DF[I:staff +1] (3z[I:staff -1] DF[I:staff +1] (3z[I:staff -1] DF | %13
[I:staff +1] (3z[I:staff -1] =EG[I:staff +1] (3z[I:staff -1] EG[I:staff +1] (3z[I:staff -1] EG[I:staff +1] (3z[I:staff -1] EG | %14
[I:staff +1] (3z[I:staff -1] =EF[I:staff +1] (3z[I:staff -1] EF[I:staff +1] (3z[I:staff -1] EF[I:staff +1] (3z[I:staff -1] EF | %15
[I:staff +1] (3z A,C (3z[I:staff -1] Ac[I:staff +1] z4 | %16
 (3z[I:staff -1] DB[I:staff +1] (3z[I:staff -1] DB[I:staff +1] (3z[I:staff -1] DB[I:staff +1] (3z[I:staff -1] DB | %17
[I:staff +1] (3z[I:staff -1] EB[I:staff +1] (3z[I:staff -1] EB[I:staff +1] (3z[I:staff -1] EB[I:staff +1] (3z[I:staff -1] EB | %18
[I:staff +1] (3z[I:staff -1] EA[I:staff +1] (3z[I:staff -1] EA[I:staff +1] (3z[I:staff -1] EA[I:staff +1] (3z[I:staff -1] EA | %19
[I:staff +1] (3z[I:staff -1] FB[I:staff +1] (3z[I:staff -1] FB[I:staff +1] (3z[I:staff -1] FB[I:staff +1] (3z[I:staff -1] FB | %20
[I:staff +1] (3z[I:staff -1] Bd[I:staff +1] (3z[I:staff -1] Bd[I:staff +1] (3z[I:staff -1] Gd[I:staff +1] (3z[I:staff -1] Gd | %21
[I:staff +1] (3z[I:staff -1] Bc[I:staff +1] (3z[I:staff -1] Bc[I:staff +1] (3z[I:staff -1] Bc[I:staff +1] (3z[I:staff -1] Ac | %22
[I:staff +1] (3z[I:staff -1] Ac[I:staff +1] (3z[I:staff -1] Ac[I:staff +1] (3z[I:staff -1] Ac[I:staff +1] (3z[I:staff -1] Ac | %23
[I:staff +1] (3z[I:staff -1] AB[I:staff +1] (3z[I:staff -1] AB[I:staff +1] (3z[I:staff -1] AB[I:staff +1] (3z[I:staff -1] AB | %24
[I:staff +1] (3z[I:staff -1] GB[I:staff +1] (3z[I:staff -1] GB[I:staff +1] (3z[I:staff -1] GB[I:staff +1] (3z[I:staff -1] GB | %25
[I:staff +1] (3z[I:staff -1] F_A[I:staff +1] (3z[I:staff -1] FA[I:staff +1] (3z[I:staff -1] FA[I:staff +1] (3z[I:staff -1] FA | %26
[I:staff +1] (3z[I:staff -1] =EG[I:staff +1] (3z[I:staff -1] EG[I:staff +1] (3z[I:staff -1] EG[I:staff +1] (3z[I:staff -1] EG | %27
[I:staff +1] (3z[I:staff -1] =EF[I:staff +1] (3z[I:staff -1] EF[I:staff +1] (3z[I:staff -1] EF[I:staff +1] (3z[I:staff -1] EF | %28
[I:staff +1] (3z[I:staff -1] DF[I:staff +1] (3z[I:staff -1] DF[I:staff +1] (3z[I:staff -1] DF[I:staff +1] (3z[I:staff -1] DF | %29
[I:staff +1] (3z[I:staff -1] =EG[I:staff +1] (3z[I:staff -1] EG[I:staff +1] (3z[I:staff -1] EG[I:staff +1] (3z[I:staff -1] EG | %30
[I:staff +1] (3z[I:staff -1] =EF[I:staff +1] (3z[I:staff -1] EF[I:staff +1] (3z[I:staff -1] EF[I:staff +1] (3z[I:staff -1] EF | %31
[I:staff +1] (3z A,C (3z[I:staff -1] Ac[I:staff +1] z4 | %32
 (3z[I:staff -1] Fc[I:staff +1] (3z[I:staff -1] Fc[I:staff +1] (3z[I:staff -1] Fc[I:staff +1] (3z[I:staff -1] Fc | %33
[I:staff +1] (3z[I:staff -1] Fd[I:staff +1] (3z[I:staff -1] Fd[I:staff +1] (3z[I:staff -1] Fd[I:staff +1] (3z[I:staff -1] Fd | %34
[I:staff +1] (3z[I:staff -1] Ed[I:staff +1] (3z[I:staff -1] Ed[I:staff +1] (3z[I:staff -1] Ec[I:staff +1] (3z[I:staff -1] Ec | %35
[I:staff +1] (3z[I:staff -1] Dc[I:staff +1] (3z[I:staff -1] =Ec[I:staff +1] (3z[I:staff -1] ^Fc[I:staff +1] (3z[I:staff -1] Ac | %36
[I:staff +1] (3z[I:staff -1] GB[I:staff +1] (3z[I:staff -1] GB[I:staff +1] (3z[I:staff -1] GB[I:staff +1] (3z[I:staff -1] GB | %37
[I:staff +1] (3z[I:staff -1] ^FA[I:staff +1] (3z[I:staff -1] FA[I:staff +1] (3z[I:staff -1] FA[I:staff +1] (3z[I:staff -1] FA | %38
[I:staff +1] (3z[I:staff -1] ^FG[I:staff +1] (3z[I:staff -1] FG[I:staff +1] (3z[I:staff -1] FG[I:staff +1] (3z[I:staff -1] FG | %39
[I:staff +1] (3z[I:staff -1] ^FA[I:staff +1] (3z[I:staff -1] FA[I:staff +1] (3z[I:staff -1] FA[I:staff +1] (3z[I:staff -1] FA | %40
[I:staff +1] (3z[I:staff -1] GB[I:staff +1] (3z[I:staff -1] Ac[I:staff +1] (3z[I:staff -1] Bd[I:staff +1] (3z[I:staff -1] G=e | %41
[I:staff +1] (3z[I:staff -1] A^f[I:staff +1] (3z[I:staff -1] Bg[I:staff +1] (3z[I:staff -1] ca[I:staff +1] (3z[I:staff -1] cf | %42
[I:staff +1] (3z[I:staff -1] =Bg[I:staff +1] (3z[I:staff -1] _B=e[I:staff +1] (3z[I:staff -1] A^f[I:staff +1] (3z[I:staff -1] cf | %43
[I:staff +1] (3z[I:staff -1] Bg[I:staff +1] (3z[I:staff -1] Bg[I:staff +1] (3z[I:staff -1] Bg[I:staff +1] (3z[I:staff -1] Bg | %44
[I:staff +1] (3z[I:staff -1] _Af[I:staff +1] (3z[I:staff -1] Af[I:staff +1] (3z[I:staff -1] Af[I:staff +1] (3z[I:staff -1] Af | %45
[I:staff +1] (3z[I:staff -1] Ge[I:staff +1] (3z[I:staff -1] Ge[I:staff +1] (3z[I:staff -1] Ge[I:staff +1] (3z[I:staff -1] Ge | %46
[I:staff +1] (3z[I:staff -1] Ae[I:staff +1] (3z[I:staff -1] Ae[I:staff +1] (3z[I:staff -1] Bd[I:staff +1] (3z[I:staff -1] B_d | %47
[I:staff +1] (3z[I:staff -1] Ac[I:staff +1] (3z[I:staff -1] Ac[I:staff +1] (3z[I:staff -1] Ac[I:staff +1] (3z[I:staff -1] Ac | %48
[I:staff +1] (3z[I:staff -1] Ac[I:staff +1] (3z[I:staff -1] Ac[I:staff +1] (3z[I:staff -1] Ac[I:staff +1] (3z[I:staff -1] Ac | %49
[I:staff +1] (3z[I:staff -1] _A=B[I:staff +1] (3z[I:staff -1] AB[I:staff +1] (3z[I:staff -1] AB[I:staff +1] (3z[I:staff -1] AB | %50
[I:staff +1] (3z[I:staff -1] GB[I:staff +1] (3z[I:staff -1] GB[I:staff +1] (3z[I:staff -1] GB[I:staff +1] (3z[I:staff -1] GB | %51
[I:staff +1] (3z[I:staff -1] _GA[I:staff +1] (3z[I:staff -1] GA[I:staff +1] (3z[I:staff -1] GA[I:staff +1] (3z[I:staff -1] GA | %52
[I:staff +1] (3z[I:staff -1] F_A[I:staff +1] (3z[I:staff -1] FA[I:staff +1] (3z[I:staff -1] FA[I:staff +1] (3z[I:staff -1] FA | %53
[I:staff +1] (3z[I:staff -1] =EG[I:staff +1] (3z[I:staff -1] EG[I:staff +1] (3z[I:staff -1] EG[I:staff +1] (3z[I:staff -1] EG | %54
[I:staff +1] (3z[I:staff -1] E_G[I:staff +1] (3z[I:staff -1] EG[I:staff +1] (3z[I:staff -1] EG[I:staff +1] (3z[I:staff -1] EG | %55
[I:staff +1] (3z[I:staff -1] _D=E[I:staff +1] (3z[I:staff -1] DE[I:staff +1] (3z[I:staff -1] DE[I:staff +1] (3z[I:staff -1] DE | %56
[I:staff +1] (3z[I:staff -1] CE[I:staff +1] (3z[I:staff -1] CE[I:staff +1] (3z[I:staff -1] CE[I:staff +1] (3z[I:staff -1] CE | %57
[I:staff +1] (3z B,_D (3z B,D (3z B,D (3z B,D | (3z A,C (3z A,C (3z A,C (3z A,C | %59
 (3z A,B, (3z A,B, (3z A,B, (3z A,B, | (3z G,B, (3z G,B, (3z G,B, (3z G,B, | %61
 (3z A,C (3z A,C (3z A,C (3z A,C | (3z A,B, (3z A,B, (3z A,B, (3z A,B, | %63
 (3z[I:staff -1] DF[I:staff +1] (3z[I:staff -1] df[I:staff +1] z4 | %64
 (3z[I:staff -1] Fc[I:staff +1] (3z[I:staff -1] Fc[I:staff +1] (3z[I:staff -1] Fc[I:staff +1] (3z[I:staff -1] Fc | %65
[I:staff +1] (3z[I:staff -1] Fd[I:staff +1] (3z[I:staff -1] Fd[I:staff +1] (3z[I:staff -1] Fd[I:staff +1] (3z[I:staff -1] Fd | %66
[I:staff +1] (3z[I:staff -1] Ed[I:staff +1] (3z[I:staff -1] Ed[I:staff +1] (3z[I:staff -1] Ec[I:staff +1] (3z[I:staff -1] Ec | %67
[I:staff +1] (3z[I:staff -1] Dc[I:staff +1] (3z[I:staff -1] =Ec[I:staff +1] (3z[I:staff -1] ^Fc[I:staff +1] (3z[I:staff -1] Ac | %68
[I:staff +1] (3z[I:staff -1] GB[I:staff +1] (3z[I:staff -1] GB[I:staff +1] (3z[I:staff -1] GB[I:staff +1] (3z[I:staff -1] GB | %69
[I:staff +1] (3z[I:staff -1] ^FA[I:staff +1] (3z[I:staff -1] FA[I:staff +1] (3z[I:staff -1] FA[I:staff +1] (3z[I:staff -1] FA | %70
[I:staff +1] (3z[I:staff -1] ^FG[I:staff +1] (3z[I:staff -1] FG[I:staff +1] (3z[I:staff -1] FG[I:staff +1] (3z[I:staff -1] FG | %71
[I:staff +1] (3z[I:staff -1] ^FA[I:staff +1] (3z[I:staff -1] FA[I:staff +1] (3z[I:staff -1] FA[I:staff +1] (3z[I:staff -1] FA | %72
[I:staff +1] (3z[I:staff -1] GB[I:staff +1] (3z[I:staff -1] Ac[I:staff +1] (3z[I:staff -1] Bd[I:staff +1] (3z[I:staff -1] G=e | %73
[I:staff +1] (3z[I:staff -1] A^f[I:staff +1] (3z[I:staff -1] Bg[I:staff +1] (3z[I:staff -1] ca[I:staff +1] (3z[I:staff -1] cf | %74
[I:staff +1] (3z[I:staff -1] =Bg[I:staff +1] (3z[I:staff -1] _B=e[I:staff +1] (3z[I:staff -1] A^f[I:staff +1] (3z[I:staff -1] cf | %75
[I:staff +1] (3z[I:staff -1] Bg[I:staff +1] (3z[I:staff -1] Bg[I:staff +1] (3z[I:staff -1] Bg[I:staff +1] (3z[I:staff -1] Bg | %76
[I:staff +1] (3z[I:staff -1] _Af[I:staff +1] (3z[I:staff -1] Af[I:staff +1] (3z[I:staff -1] Af[I:staff +1] (3z[I:staff -1] Af | %77
[I:staff +1] (3z[I:staff -1] Ge[I:staff +1] (3z[I:staff -1] Ge[I:staff +1] (3z[I:staff -1] Ge[I:staff +1] (3z[I:staff -1] Ge | %78
[I:staff +1] (3z[I:staff -1] Ae[I:staff +1] (3z[I:staff -1] Ae[I:staff +1] (3z[I:staff -1] Bd[I:staff +1] (3z[I:staff -1] B_d | %79
[I:staff +1] (3z[I:staff -1] Ac[I:staff +1] (3z[I:staff -1] Ac[I:staff +1] (3z[I:staff -1] Ac[I:staff +1] (3z[I:staff -1] Ac | %80
[I:staff +1] (3z[I:staff -1] Ac[I:staff +1] (3z[I:staff -1] Ac[I:staff +1] (3z[I:staff -1] Ac[I:staff +1] (3z[I:staff -1] Ac | %81
[I:staff +1] (3z[I:staff -1] _A=B[I:staff +1] (3z[I:staff -1] AB[I:staff +1] (3z[I:staff -1] AB[I:staff +1] (3z[I:staff -1] AB | %82
[I:staff +1] (3z[I:staff -1] GB[I:staff +1] (3z[I:staff -1] GB[I:staff +1] (3z[I:staff -1] GB[I:staff +1] (3z[I:staff -1] GB | %83
[I:staff +1] (3z[I:staff -1] _GA[I:staff +1] (3z[I:staff -1] GA[I:staff +1] (3z[I:staff -1] GA[I:staff +1] (3z[I:staff -1] GA | %84
[I:staff +1] (3z[I:staff -1] F_A[I:staff +1] (3z[I:staff -1] FA[I:staff +1] (3z[I:staff -1] FA[I:staff +1] (3z[I:staff -1] FA | %85
[I:staff +1] (3z[I:staff -1] =EG[I:staff +1] (3z[I:staff -1] EG[I:staff +1] (3z[I:staff -1] EG[I:staff +1] (3z[I:staff -1] EG | %86
[I:staff +1] (3z[I:staff -1] E_G[I:staff +1] (3z[I:staff -1] EG[I:staff +1] (3z[I:staff -1] EG[I:staff +1] (3z[I:staff -1] EG | %87
[I:staff +1] (3z[I:staff -1] _D=E[I:staff +1] (3z[I:staff -1] DE[I:staff +1] (3z[I:staff -1] DE[I:staff +1] (3z[I:staff -1] DE | %88
[I:staff +1] (3z[I:staff -1] CE[I:staff +1] (3z[I:staff -1] CE[I:staff +1] (3z[I:staff -1] CE[I:staff +1] (3z[I:staff -1] CE | %89
[I:staff +1] (3z B,_D (3z B,D (3z B,D (3z B,D | (3z A,C (3z A,C (3z A,C (3z A,C | %91
 (3z A,B, (3z A,B, (3z A,B, (3z A,B, | (3z G,B, (3z G,B, (3z G,B, (3z G,B, | %93
 (3z A,C (3z A,C (3z A,C (3z A,C | (3z A,B, (3z A,B, (3z A,B, (3z A,B, | %95
 (3z[I:staff -1] DF[I:staff +1] (3z[I:staff -1] df[I:staff +1] z4 |] %96

